components/Common/Svg/svgs/titledAngular.svg

<svg width="87" height="146" viewBox="0 0 87 146" fill="none" xmlns="http://www.w3.org/2000/svg">
<path d="M43.3666 0.115967L0.289062 15.3137L7.09647 71.8923L43.4122 91.9016L79.9155 71.6212L86.7202 15.0446L43.3666 0.115967Z" fill="#B3B3B3"/>
<path d="M82.4231 18.3145L43.2656 4.92822V87.1211L76.0813 68.9144L82.4228 18.3145H82.4231Z" fill="#5E5E5E"/>
<path d="M5.12109 18.5557L10.9545 69.1564L43.2635 87.1211V4.92688L5.12143 18.5554L5.12109 18.5557Z" fill="#878787"/>
<path d="M54.0455 48.6836L43.2667 53.7367H31.9061L26.5658 67.1274L16.6328 67.3114L43.2667 7.91321L54.0455 48.684V48.6836ZM53.0036 46.1397L43.3384 26.958L35.4102 45.8096H43.2664L53.0036 46.14V46.1397Z" fill="#F2F2F2"/>
<path d="M43.2656 7.91284L43.337 26.958L52.3327 45.8242H43.286L43.2656 53.7244L55.7753 53.7363L61.6219 67.3134L71.1263 67.4899L43.2656 7.91284Z" fill="#B3B3B3"/>
<path d="M16.802 133.21H11.33L10.322 136H8.594L13.13 123.526H15.02L19.538 136H17.81L16.802 133.21ZM16.334 131.878L14.066 125.542L11.798 131.878H16.334ZM26.3209 125.956C27.5209 125.956 28.4929 126.322 29.2369 127.054C29.9809 127.774 30.3529 128.818 30.3529 130.186V136H28.7329V130.42C28.7329 129.436 28.4869 128.686 27.9949 128.17C27.5029 127.642 26.8309 127.378 25.9789 127.378C25.1149 127.378 24.4249 127.648 23.9089 128.188C23.4049 128.728 23.1529 129.514 23.1529 130.546V136H21.5149V126.136H23.1529V127.54C23.4769 127.036 23.9149 126.646 24.4669 126.37C25.0309 126.094 25.6489 125.956 26.3209 125.956ZM37.0966 125.974C37.9486 125.974 38.6926 126.16 39.3286 126.532C39.9766 126.904 40.4566 127.372 40.7686 127.936V126.136H42.4246V136.216C42.4246 137.116 42.2326 137.914 41.8486 138.61C41.4646 139.318 40.9126 139.87 40.1926 140.266C39.4846 140.662 38.6566 140.86 37.7086 140.86C36.4126 140.86 35.3326 140.554 34.4686 139.942C33.6046 139.33 33.0946 138.496 32.9386 137.44H34.5586C34.7386 138.04 35.1106 138.52 35.6746 138.88C36.2386 139.252 36.9166 139.438 37.7086 139.438C38.6086 139.438 39.3406 139.156 39.9046 138.592C40.4806 138.028 40.7686 137.236 40.7686 136.216V134.146C40.4446 134.722 39.9646 135.202 39.3286 135.586C38.6926 135.97 37.9486 136.162 37.0966 136.162C36.2206 136.162 35.4226 135.946 34.7026 135.514C33.9946 135.082 33.4366 134.476 33.0286 133.696C32.6206 132.916 32.4166 132.028 32.4166 131.032C32.4166 130.024 32.6206 129.142 33.0286 128.386C33.4366 127.618 33.9946 127.024 34.7026 126.604C35.4226 126.184 36.2206 125.974 37.0966 125.974ZM40.7686 131.05C40.7686 130.306 40.6186 129.658 40.3186 129.106C40.0186 128.554 39.6106 128.134 39.0946 127.846C38.5906 127.546 38.0326 127.396 37.4206 127.396C36.8086 127.396 36.2506 127.54 35.7466 127.828C35.2426 128.116 34.8406 128.536 34.5406 129.088C34.2406 129.64 34.0906 130.288 34.0906 131.032C34.0906 131.788 34.2406 132.448 34.5406 133.012C34.8406 133.564 35.2426 133.99 35.7466 134.29C36.2506 134.578 36.8086 134.722 37.4206 134.722C38.0326 134.722 38.5906 134.578 39.0946 134.29C39.6106 133.99 40.0186 133.564 40.3186 133.012C40.6186 132.448 40.7686 131.794 40.7686 131.05ZM53.9406 126.136V136H52.3026V134.542C51.9906 135.046 51.5526 135.442 50.9886 135.73C50.4366 136.006 49.8246 136.144 49.1526 136.144C48.3846 136.144 47.6946 135.988 47.0826 135.676C46.4706 135.352 45.9846 134.872 45.6246 134.236C45.2766 133.6 45.1026 132.826 45.1026 131.914V126.136H46.7226V131.698C46.7226 132.67 46.9686 133.42 47.4606 133.948C47.9526 134.464 48.6246 134.722 49.4766 134.722C50.3526 134.722 51.0426 134.452 51.5466 133.912C52.0506 133.372 52.3026 132.586 52.3026 131.554V126.136H53.9406ZM58.3443 122.68V136H56.7063V122.68H58.3443ZM60.524 131.032C60.524 130.024 60.728 129.142 61.136 128.386C61.544 127.618 62.102 127.024 62.81 126.604C63.53 126.184 64.328 125.974 65.204 125.974C66.068 125.974 66.818 126.16 67.454 126.532C68.09 126.904 68.564 127.372 68.876 127.936V126.136H70.532V136H68.876V134.164C68.552 134.74 68.066 135.22 67.418 135.604C66.782 135.976 66.038 136.162 65.186 136.162C64.31 136.162 63.518 135.946 62.81 135.514C62.102 135.082 61.544 134.476 61.136 133.696C60.728 132.916 60.524 132.028 60.524 131.032ZM68.876 131.05C68.876 130.306 68.726 129.658 68.426 129.106C68.126 128.554 67.718 128.134 67.202 127.846C66.698 127.546 66.14 127.396 65.528 127.396C64.916 127.396 64.358 127.54 63.854 127.828C63.35 128.116 62.948 128.536 62.648 129.088C62.348 129.64 62.198 130.288 62.198 131.032C62.198 131.788 62.348 132.448 62.648 133.012C62.948 133.564 63.35 133.99 63.854 134.29C64.358 134.578 64.916 134.722 65.528 134.722C66.14 134.722 66.698 134.578 67.202 134.29C67.718 133.99 68.126 133.564 68.426 133.012C68.726 132.448 68.876 131.794 68.876 131.05ZM74.9381 127.738C75.2261 127.174 75.6341 126.736 76.1621 126.424C76.7021 126.112 77.3561 125.956 78.1241 125.956V127.648H77.6921C75.8561 127.648 74.9381 128.644 74.9381 130.636V136H73.3001V126.136H74.9381V127.738Z" fill="#A0A0A0"/>
</svg>

<svg width="87" height="146" viewBox="0 0 87 146" fill="none" xmlns="http://www.w3.org/2000/svg"><path d="M43.367.116.289 15.314l6.807 56.578 36.316 20.01 36.503-20.28 6.805-56.577L43.367.116Z" fill="#B3B3B3"/><path d="M82.423 18.314 43.266 4.928v82.193L76.08 68.914l6.342-50.6Z" fill="#5E5E5E"/><path d="m5.121 18.556 5.833 50.6 32.31 17.965V4.927L5.12 18.555Z" fill="#878787"/><path d="m54.045 48.684-10.778 5.053h-11.36l-5.341 13.39-9.933.184L43.267 7.913l10.778 40.771Zm-1.041-2.544-9.666-19.182L35.41 45.81h7.856l9.738.33Z" fill="#F2F2F2"/><path d="m43.266 7.913.071 19.045 8.996 18.866h-9.047l-.02 7.9 12.51.012 5.846 13.577 9.504.177-27.86-59.577Z" fill="#B3B3B3"/><path d="M16.802 133.21H11.33L10.322 136H8.594l4.536-12.474h1.89L19.538 136H17.81l-1.008-2.79Zm-.468-1.332-2.268-6.336-2.268 6.336h4.536Zm9.987-5.922c1.2 0 2.172.366 2.916 1.098.744.72 1.116 1.764 1.116 3.132V136h-1.62v-5.58c0-.984-.246-1.734-.738-2.25-.492-.528-1.164-.792-2.016-.792-.864 0-1.554.27-2.07.81-.504.54-.756 1.326-.756 2.358V136h-1.638v-9.864h1.638v1.404a3.266 3.266 0 0 1 1.314-1.17 4.16 4.16 0 0 1 1.854-.414Zm10.776.018c.852 0 1.596.186 2.232.558.648.372 1.128.84 1.44 1.404v-1.8h1.656v10.08c0 .9-.192 1.698-.576 2.394a4.076 4.076 0 0 1-1.656 1.656c-.708.396-1.536.594-2.484.594-1.296 0-2.376-.306-3.24-.918-.864-.612-1.374-1.446-1.53-2.502h1.62c.18.6.552 1.08 1.116 1.44.564.372 1.242.558 2.034.558.9 0 1.632-.282 2.196-.846.576-.564.864-1.356.864-2.376v-2.07c-.324.576-.804 1.056-1.44 1.44-.636.384-1.38.576-2.232.576a4.564 4.564 0 0 1-2.394-.648c-.708-.432-1.266-1.038-1.674-1.818-.408-.78-.612-1.668-.612-2.664 0-1.008.204-1.89.612-2.646a4.446 4.446 0 0 1 1.674-1.782c.72-.42 1.518-.63 2.394-.63Zm3.672 5.076c0-.744-.15-1.392-.45-1.944a3.098 3.098 0 0 0-1.224-1.26 3.211 3.211 0 0 0-1.674-.45c-.612 0-1.17.144-1.674.432a3.134 3.134 0 0 0-1.206 1.26c-.3.552-.45 1.2-.45 1.944 0 .756.15 1.416.45 1.98.3.552.702.978 1.206 1.278a3.314 3.314 0 0 0 1.674.432c.612 0 1.17-.144 1.674-.432.516-.3.924-.726 1.224-1.278.3-.564.45-1.218.45-1.962Zm13.172-4.914V136h-1.638v-1.458c-.312.504-.75.9-1.314 1.188a4.047 4.047 0 0 1-1.836.414c-.768 0-1.458-.156-2.07-.468a3.582 3.582 0 0 1-1.458-1.44c-.348-.636-.522-1.41-.522-2.322v-5.778h1.62v5.562c0 .972.246 1.722.738 2.25.492.516 1.164.774 2.016.774.876 0 1.566-.27 2.07-.81.504-.54.756-1.326.756-2.358v-5.418h1.638Zm4.403-3.456V136h-1.638v-13.32h1.638Zm2.18 8.352c0-1.008.204-1.89.612-2.646a4.446 4.446 0 0 1 1.674-1.782c.72-.42 1.518-.63 2.394-.63.864 0 1.614.186 2.25.558.636.372 1.11.84 1.422 1.404v-1.8h1.656V136h-1.656v-1.836c-.324.576-.81 1.056-1.458 1.44-.636.372-1.38.558-2.232.558-.876 0-1.668-.216-2.376-.648-.708-.432-1.266-1.038-1.674-1.818-.408-.78-.612-1.668-.612-2.664Zm8.352.018c0-.744-.15-1.392-.45-1.944a3.098 3.098 0 0 0-1.224-1.26 3.211 3.211 0 0 0-1.674-.45c-.612 0-1.17.144-1.674.432a3.134 3.134 0 0 0-1.206 1.26c-.3.552-.45 1.2-.45 1.944 0 .756.15 1.416.45 1.98.3.552.702.978 1.206 1.278a3.314 3.314 0 0 0 1.674.432c.612 0 1.17-.144 1.674-.432.516-.3.924-.726 1.224-1.278.3-.564.45-1.218.45-1.962Zm6.062-3.312a3.16 3.16 0 0 1 1.224-1.314c.54-.312 1.194-.468 1.962-.468v1.692h-.432c-1.836 0-2.754.996-2.754 2.988V136H73.3v-9.864h1.638v1.602Z" fill="#A0A0A0"/></svg>
